src/images/competition/scoreboard-open-icon.svg

<svg width="43" height="43" viewBox="0 0 43 43" fill="none" xmlns="http://www.w3.org/2000/svg">
<g clip-path="url(#clip0_1480_6)">
<path d="M26.5745 16.3342H16.4311C16.131 16.3342 15.8877 16.5775 15.8877 16.8777V42.4565C15.8877 42.7566 16.131 43 16.4311 43H26.5745C26.8746 43 27.1179 42.7566 27.1179 42.4565V16.8777C27.1179 16.5775 26.8746 16.3342 26.5745 16.3342Z" fill="#F2333D"/>
<path d="M41.7513 30.7899H31.6079C31.3077 30.7899 31.0645 31.0332 31.0645 31.3334V42.4565C31.0645 42.7567 31.3077 43 31.6079 43H41.7513C42.0514 43 42.2947 42.7567 42.2947 42.4565V31.3334C42.2947 31.0332 42.0514 30.7899 41.7513 30.7899Z" fill="#703619"/>
<path d="M11.3968 23.562H1.25336C0.953249 23.562 0.709961 23.8054 0.709961 24.1056V42.4565C0.709961 42.7567 0.953249 43 1.25336 43H11.3968C11.6969 43 11.9402 42.7567 11.9402 42.4565V24.1056C11.9402 23.8054 11.6969 23.562 11.3968 23.562Z" fill="#703619"/>
<path d="M26.5498 3.67113H23.7518C23.6707 3.67113 23.5992 3.61869 23.5706 3.5424L22.7079 0.88202C22.5363 0.348036 22.0596 0.00476074 21.4971 0.00476074C20.9347 0.00476074 20.4628 0.348036 20.2864 0.88202L19.4236 3.5424C19.3998 3.61869 19.3283 3.67113 19.2425 3.67113H16.4445C15.882 3.67113 15.4101 4.01441 15.2338 4.54839C15.0622 5.08237 15.2433 5.6402 15.6961 5.96917L17.9603 7.61403C18.027 7.66171 18.0556 7.74752 18.027 7.82381L17.1595 10.4842C16.9879 11.0182 17.169 11.576 17.6218 11.905C17.8506 12.0718 18.108 12.1529 18.3702 12.1529C18.6324 12.1529 18.8898 12.0718 19.1186 11.905L21.3827 10.2601C21.4495 10.2124 21.54 10.2124 21.602 10.2601L23.8662 11.905C24.319 12.2339 24.9101 12.2339 25.3629 11.905C25.8157 11.576 25.9969 11.0182 25.8253 10.4842L24.9625 7.82381C24.9387 7.74752 24.9625 7.66171 25.0292 7.61403L27.2934 5.96917C27.7462 5.6402 27.9274 5.08237 27.7558 4.54839C27.5842 4.01441 27.1075 3.67113 26.545 3.67113H26.5498Z" fill="#F2333D"/>
<path d="M11.3732 12.1005H8.57518C8.49415 12.1005 8.42265 12.048 8.39405 11.9717L7.53129 9.31134C7.35969 8.77736 6.88302 8.43408 6.32056 8.43408C5.75809 8.43408 5.28619 8.77736 5.10982 9.31134L4.24706 11.9717C4.22323 12.048 4.15173 12.1005 4.06593 12.1005H1.27267C0.710202 12.1005 0.238303 12.4437 0.0619363 12.9777C-0.11443 13.5117 0.0714697 14.0695 0.524302 14.3985L2.78846 16.0434C2.8552 16.091 2.8838 16.1768 2.8552 16.2531L1.99243 18.9135C1.82083 19.4475 2.00197 20.0053 2.4548 20.3343C2.90763 20.6633 3.49393 20.6633 3.94676 20.3343L6.21092 18.6894C6.27766 18.6418 6.36822 18.6418 6.43019 18.6894L8.69435 20.3343C8.92315 20.5012 9.18055 20.5822 9.44271 20.5822C9.70488 20.5822 9.96228 20.5012 10.1911 20.3343C10.6439 20.0053 10.825 19.4475 10.6534 18.9135L9.79068 16.2531C9.76685 16.1768 9.79068 16.091 9.85741 16.0434L12.1216 14.3985C12.5744 14.0695 12.7555 13.5117 12.5839 12.9777C12.4123 12.4437 11.9357 12.1005 11.3732 12.1005Z" fill="#703619"/>
<path d="M42.9383 19.4189C42.7667 18.8849 42.2901 18.5416 41.7276 18.5416H38.9296C38.8485 18.5416 38.777 18.4892 38.7484 18.4129L37.8857 15.7525C37.7141 15.2185 37.2374 14.8753 36.6749 14.8753C36.1125 14.8753 35.6406 15.2185 35.4642 15.7525L34.6014 18.4129C34.5776 18.4892 34.5061 18.5416 34.4203 18.5416H31.6223C31.0598 18.5416 30.5879 18.8849 30.4115 19.4189C30.2352 19.9529 30.4211 20.5107 30.8739 20.8397L33.1381 22.4845C33.2048 22.5322 33.2334 22.618 33.2048 22.6943L32.3373 25.3547C32.1657 25.8887 32.3468 26.4465 32.7996 26.7755C33.2525 27.1045 33.8388 27.1045 34.2916 26.7755L36.5558 25.1306C36.6225 25.0829 36.7131 25.0829 36.775 25.1306L39.0392 26.7755C39.268 26.9424 39.5254 27.0234 39.7876 27.0234C40.0497 27.0234 40.3071 26.9424 40.5359 26.7755C40.9888 26.4465 41.1699 25.8887 40.9983 25.3547L40.1355 22.6943C40.1117 22.618 40.1355 22.5322 40.2023 22.4845L42.4664 20.8397C42.9192 20.5107 43.1004 19.9529 42.9288 19.4189H42.9383Z" fill="#703619"/>
</g>
<defs>
<clipPath id="clip0_1480_6">
<rect width="43" height="43" fill="white"/>
</clipPath>
</defs>
</svg>

<svg width="43" height="43" fill="none" xmlns="http://www.w3.org/2000/svg"><g clip-path="url(#a)"><path d="M26.57 16.33H16.43c-.3 0-.54.25-.54.55v25.58c0 .3.24.54.54.54h10.14c.3 0 .55-.24.55-.54V16.88c0-.3-.25-.55-.55-.55Z" fill="#F2333D"/><path d="M41.75 30.79H31.61c-.3 0-.55.24-.55.54v11.13c0 .3.25.54.55.54h10.14c.3 0 .54-.24.54-.54V31.33c0-.3-.24-.54-.54-.54ZM11.4 23.56H1.25c-.3 0-.54.25-.54.55v18.35c0 .3.24.54.54.54H11.4c.3 0 .54-.24.54-.54V24.1c0-.3-.24-.55-.54-.55Z" fill="#703619"/><path d="M26.55 3.67h-2.8a.2.2 0 0 1-.18-.13L22.71.88A1.25 1.25 0 0 0 21.5 0c-.57 0-1.04.35-1.21.88l-.87 2.66a.19.19 0 0 1-.18.13h-2.8c-.56 0-1.03.34-1.2.88-.18.53 0 1.09.46 1.42l2.26 1.64c.07.05.1.14.07.21l-.87 2.66c-.17.54 0 1.1.46 1.42a1.26 1.26 0 0 0 1.5 0l2.26-1.64a.19.19 0 0 1 .22 0l2.27 1.64c.45.33 1.04.33 1.5 0 .45-.32.63-.88.46-1.42l-.87-2.66a.19.19 0 0 1 .07-.2l2.26-1.65c.46-.33.64-.89.47-1.42a1.25 1.25 0 0 0-1.21-.88Z" fill="#F2333D"/><path d="M11.37 12.1h-2.8a.2.2 0 0 1-.18-.13l-.86-2.66a1.25 1.25 0 0 0-1.2-.88c-.57 0-1.04.35-1.22.88l-.86 2.66a.19.19 0 0 1-.18.13h-2.8c-.56 0-1.03.34-1.2.88-.18.53 0 1.09.45 1.42l2.27 1.64c.07.05.1.14.07.21l-.87 2.66c-.17.54.01 1.1.46 1.42.46.33 1.04.33 1.5 0L6.2 18.7a.19.19 0 0 1 .22 0l2.26 1.64a1.26 1.26 0 0 0 1.5 0c.45-.32.63-.88.46-1.42l-.86-2.66a.19.19 0 0 1 .07-.2l2.26-1.65c.45-.33.64-.89.46-1.42a1.25 1.25 0 0 0-1.2-.88ZM42.94 19.42a1.25 1.25 0 0 0-1.21-.88h-2.8a.2.2 0 0 1-.18-.13l-.86-2.66a1.25 1.25 0 0 0-1.22-.87c-.56 0-1.03.34-1.2.87l-.87 2.66a.19.19 0 0 1-.18.13h-2.8c-.56 0-1.03.34-1.2.88-.18.53 0 1.1.45 1.42l2.27 1.64c.06.05.1.14.06.21l-.86 2.66c-.17.54 0 1.1.46 1.43.45.32 1.04.32 1.5 0l2.26-1.65a.19.19 0 0 1 .21 0l2.27 1.65a1.26 1.26 0 0 0 1.5 0c.45-.33.63-.9.46-1.43l-.86-2.66a.19.19 0 0 1 .06-.2l2.27-1.65c.45-.33.63-.89.46-1.42Z" fill="#703619"/></g><defs><clipPath id="a"><path fill="#fff" d="M0 0h43v43H0z"/></clipPath></defs></svg>
